X:1
T:The Legacy Jig
M:6/8
L:1/8
R:jig
K:G
zefzef
GFG B2A | GFG B2A | GFG B2A | GFG B2A | GFG B2A | GFG B2A | GFG B2A | GFG B2A | GFG B2A | GFG B2A | GFG B2A | GFG B2A | GFG B2A | GFG B2A | GFG B2A | GFG B2A | GFG B2A | GFG B2A | GFG B2A | GFG B2A | GFG B2A | GFG B2A | GFG B2A | GFG B2A | GFG B2A | GFG B2A | GFG B2A | GFG B2A | GFG B2A | GFG B2A | GFG B2A | GFG B2A | GFG B2A | GFG B2A | GFG B2A | GFG B2A | GFG B2A | GFG B2A | GFG B2A | GFG B2A | GFG B2A | GFG B2A | GFG B2A | GFG B2A | GFG B2A | GFG B2A | GFG B2A | GFG B2A | GFG B2A | GFG B2A | GFG B2A | GFG B2A | GFG B2A | GFG B2A | GFG B2A | GFG B2A | GFG B2A | GFG B2A | GFG B2A | GFG B2A | GFG B2A | GFG B2A | GFG B2A | GFG B2A | GFG B2A | GFG B2A | GFG B2A | GFG B2A | GFG B2A | GFG B2A | GFG B2A | GFG B2A | GFG B2A | GFG B2A | GFG B2A | GFG B2A | GFG B2A | GFG B2A | GFG B2A | GFG B2A | GFG B2A | GFG B2A | GFG B2A | GFG B2A | GFG B2A | GFG B2A | GFG B2A | GFG B2A | GFG B2A | GFG B2A | GFG B2A | GFG B2A | GFG B2A | GFG B2A | GFG B2A | GFG B2A | 
